X: 39630
T: Temple Hill
R: reel
M: 4/4
K: Edorian
|:B,E~E2 B2AF|BFAF DEFD|B,E~E2 BABd|1 dBAF E2FD:|2 dBAF E2F/G/A||
|:Bdeg f2ec|dBAF DEFA|Bdeg f2ec|1 dBAF E3A:|2 dBAF E3F|
|:G3E F3D|EGFE DB,B,2|1 GE~E2 FDD2|EGFD E3F:|2 DFEG FAdB|AFDF E3A||

